X:1
T:J. S. Bach (BWV 1080 No. 17)
T:Arranged for Cello & Bass by Mike Magatagan 2017
T:Contrapunctus XVII from the Art of the Fugue
T:Contrapunctus XVII from the Art of the Fugue (BWV 1080 No. 17) by J. S. Bach Arranged for Violin &amp; Cello by Mike Magatagan (magataganm@cox.net or Mike Magatagan on http:\\www.MuseScore.com)
T:Contrapunctus XVII from the Art of the Fugue (BWV 1080 No. 17) by J. S. Bach Arranged for Violin &amp; Cello by Mike Magatagan (magataganm@cox.net or Mike Magatagan on http:\\www.MuseScore.com)
T:Contrapunctus XVII from the Art of the Fugue (BWV 1080 No. 17) by J. S. Bach Arranged for Violin &amp; Cello by Mike Magatagan (magataganm@cox.net or Mike Magatagan on http:\\www.MuseScore.com)
Z:Contrapunctus XVII from the Art of the Fugue (BWV 1080 No. 17) by J. S. Bach Arranged for Violin & Cello by
Z:Mike Magatagan (magataganm@cox.net or Mike Magatagan on http:\\www.MuseScore.com)
%%score 1 2
L:1/8
Q:1/2=60
M:2/2
K:Ab
V:1 bass nm="Violoncello" snm="Vc."
V:2 bass transpose=-12 nm="Contrabass" snm="Cb."
V:1
"^Canon alla Duodecima in Contrapunto alla Quinta" z8 | z8 | z8 | z8 |[K:Ab] z8 | z8 | z8 | %7
[K:Ab] z8 |[K:Ab]!mf! (3C,=D,C, (3=B,,C,D, (3E,F,E, (3D,E,F, | G,4- G,F,E,=D, | E,4- E,=D,C,=B,, | %11
 C,2 =D,E, F,G, A,2 |[K:Ab] A,2 =B,,2 z G,,=A,,B,, | C,=B,,=A,,G,, =D,B,,A,,G,, | %14
 E,=D, C,2 z A,G,^F, | G,E,=D,C, E,D,C,=B,, |[K:Ab] .C,4 (3G,,A,,G,, (3F,,G,,A,, | %17
 B,,G,,A,,B,, C,=D,=E,F, | G,F,=E,=D, C,3 _D, | E,D,C,B,, A,,B,,C,A,, | %20
[K:Ab] F,,G,,A,,D,, D,B,,C,D, | E,,G,, .C,2 F,,A,, .D,2 | G,,B,,C,D, E,C,B,,A,, | %23
 B,,2 E,2 C,2 =D,2 |[K:Ab] (3E,F,E, (3=D,E,F, G,3 F,/E,/ | =D,B,,C,D, E,3 D,/C,/ | %26
 =B,,2 G,,2 z C,_B,,A,, | G,,2 E,,G,, C,2 =E,,2 |[K:Ab] F,,2 C,,2 z =D,,=E,,F,, | %29
 G,,F,,=E,,G,, A,,G,,F,,A,, | B,,A,,G,,F,, G,,E,D,C, | D,B,,G,,B,, =E,,G,,F,,A,, | %32
[K:Ab] .G,,4 (3=D,E,D, (3C,D,=E, | (3F,G,F, (3=E,F,G, (3A,B,A, (3G,A,B, | C4- CB,A,G, | %35
[K:Ab] A,4- A,G,F,=E, | F,2 G,A, B,C D2 | D2 =E,2 z C,=D,E, | F,=E,=D,C, G,E,D,C, | %39
[K:Ab] A,G, F,2 z DC=B, | CA,G,F, A,G,F,=E, | .F,4 (3C,=D,C, (3=B,,C,D, | %42
[K:Ab] =E,C,=D,E, F,G,A,B, | CB,A,G, F,3 G, | A,G,F,E, D,E,F,D, | B,,C,D,G,, G,=E,F,G, | %46
[K:Ab] A,,C, .F,2 B,,D, .G,2 | C,=E,F,G, A,F,E,=D, | =E,2 A,2 F,2 G,2 | %49
 (3A,B,A, (3G,A,B, C3 B,/A,/ |[K:Ab] G,=E,F,G, A,3 G,/F,/ | =E,2 C,2 z F,_E,D, | %52
 C,2 A,,C, F,2 =A,,2 | B,,2 F,,2 z G,,A,,B,, |[K:Ab] C,B,,A,,C, D,C,B,,D, | E,D,C,B,, C,A,G,F, | %56
 G,E,C,E, A,,C,B,,D, | .C,4 (3G,A,G, (3F,G,A, |[K:Ab] B,2- B,/A,/G,/F,/ (3E,F,E, (3=D,E,F, | %59
 G,F,=E,=D, C,3 _D, | E,D,C,B,, A,,B,,C,A,, | D,B,,A,,G,, .F,,4 |[K:Ab] z2 C,2 F,,A,, .D,2 | %63
 G,,B,, .E,2 z C,B,,=A,, | B,,2 C,4 D,2 | =E,,F,,G,,A,, (3B,,C,B,, (3A,,B,,C, | %66
[K:Ab] D,2 B,,2 (3F,G,F, (3=E,F,G, | A,2 F,2 (3C,=D,C, (3=B,,C,D, | (3=E,F,E, (3=D,E,F, G,C, C2- | %69
[K:Ab] CB,A,G, A,4- | A,G,F,E, D,E,F,D, | B,,C,D,G,, G,=E,F,G, | A,,C, .F,2 B,,D, .G,2 | %73
[K:Ab] C,=E,F,G, A,F,E,=D, | =E,2 A,2 F,2 G,2 | A,G, F,2 z DC=B, | %76
 CA,[Q:1/4=119]"^rit."G,[Q:1/4=109]"^.2"F,[Q:1/4=99]"^.3" A,G,[Q:1/4=79]"^.7"F,[Q:1/4=69]"^.8"=E,[Q:1/4=104]"^.3" | %77
[Q:1/4=60] !fermata!F,8 |] %78
V:2
!mf! (3F,G,F, (3=E,F,G, (3A,B,A, (3G,A,B, | C4- CB,A,G, | A,4- A,G,F,=E, | F,2 G,A, B,C D2 | %4
[K:Ab] D2 =E,2 z C,=D,E, | F,=E,=D,C, G,E,D,C, | A,G, F,2 z DC=B, |[K:Ab] CA,G,F, A,G,F,=E, | %8
[K:Ab] .F,4 (3C,=D,C, (3=B,,C,D, | E,C,=D,E, F,G,=A,=B, | CB,A,G, F,3 G, | A,G,F,E, =D,E,F,D, | %12
[K:Ab] =B,,C,=D,G,, G,E,F,G, | =A,,C, .F,2 =B,,=D, .G,2 | C,E,F,G, A,F,E,=D, | E,2 A,2 F,2 G,2 | %16
[K:Ab] (3A,B,A, (3G,A,B, C3 B,/A,/ | G,E,F,G, A,3 G,/F,/ | =E,2 C,2 z F,_E,D, | %19
 C,2 A,,C, F,2 A,,2 |[K:Ab] B,,2 F,,2 z G,,A,,B,, | C,B,,A,,C, D,C,B,,D, | E,D,C,B,, C,A,G,F, | %23
 G,E,C,E, =A,,C,=B,,=D, |[K:Ab] .C,4 (3G,A,G, (3F,G,A, | B,2- B,/A,/G,/F,/ (3E,F,E, (3=D,E,F, | %26
 G,F,E,=D, C,3 D, | E,D,C,B,, A,,B,,C,A,, |[K:Ab] D,B,,A,,G,, .F,,4 | z2 C,2 F,,A,, .D,2 | %30
 G,,B,, .E,2 z C,B,,=A,, | B,,2 C,4 D,2 |[K:Ab] =E,,F,,G,,A,, (3B,,C,B,, (3A,,B,,C, | %33
 D,2 B,,2 (3F,G,F, (3=E,F,G, | (3A,B,A, (3G,A,B, CF, F2- |[K:Ab] FEDC D4- | DCB,A, G,A,B,G, | %37
 =E,F,G,C, CA,B,C | =D,F, .B,2 =E,G, .C2 |[K:Ab] F,A,B,C DB,A,G, | A,2 D2 B,2 C2 | %41
 (3F,G,F, (3=E,F,G, (3A,B,A, (3G,A,B, |[K:Ab] C4- CB,A,G, | A,4- A,G,F,=E, | F,2 G,A, B,C D2 | %45
 D2 =E,2 z C,=D,E, |[K:Ab] F,=E,=D,C, G,E,D,C, | A,G, F,2 z DC=B, | CA,G,F, A,G,F,=E, | %49
 .F,4 (3C,D,C, (3B,,C,=D, |[K:Ab] =E,C,=D,E, F,G,A,B, | CB,A,G, F,3 G, | A,G,F,E, D,E,F,D, | %53
 B,,C,D,G,, G,=E,F,G, |[K:Ab] A,,C, .F,2 B,,D, .G,2 | C,E,F,G, A,F,E,=D, | E,2 A,2 F,2 G,2 | %57
 (3A,B,A, (3G,A,B, C3 B,/A,/ |[K:Ab] G,E,F,G, A,3 G,/F,/ | =E,2 C,2 z F,_E,D, | %60
 C,2 A,,C, F,2 A,,2 | B,,2 F,,2 z G,,A,,B,, |[K:Ab] C,B,,A,,C, D,C,B,,D, | E,D,C,B,, C,A,_G,F, | %64
 _G,E,C,E, =A,,C,B,,D, | .C,4 (3G,A,G, (3F,G,A, |[K:Ab] (3B,CB, (3A,B,C D2 B,2 | %67
 (3F,G,F, (3=E,F,G, (3A,B,A, (3G,A,B, | C4- CB,A,G, |[K:Ab] A,4- A,G,F,=E, | F,2 G,A, B,C D2 | %71
 D2 =E,2 z C,=D,E, | F,=E,=D,C, G,E,D,C, |[K:Ab] A,G, F,2 z DC=B, | CA,G,F, A,G,F,=E, | %75
 F,A,,B,,C, D,B,,A,,G,, | A,,2 D,2 B,,2 C,2 | !fermata!F,,8 |] %78

